public/images/hashed/b7381a991928523e64bcbc20c6b6a780.svg

<?xml version="1.0" encoding="UTF-8"?>
<svg width="80px" height="80px" viewBox="0 0 80 80" version="1.1" xmlns="http://www.w3.org/2000/svg" xmlns:xlink="http://www.w3.org/1999/xlink">
    <!-- Generator: Sketch 64 (93537) - https://sketch.com -->
    <title>Icon-Architecture/64/Arch_AWS-Elemental-MediaConvert_64</title>
    <desc>Created with Sketch.</desc>
    <defs>
        <linearGradient x1="0%" y1="100%" x2="100%" y2="0%" id="linearGradient-1">
            <stop stop-color="#C8511B" offset="0%"></stop>
            <stop stop-color="#FF9900" offset="100%"></stop>
        </linearGradient>
    </defs>
    <g id="Icon-Architecture/64/Arch_AWS-Elemental-MediaConvert_64" stroke="none" stroke-width="1" fill="none" fill-rule="evenodd">
        <g id="Icon-Architecture-BG/64/Media-Services" fill="url(#linearGradient-1)">
            <rect id="Rectangle" x="0" y="0" width="80" height="80"></rect>
        </g>
        <path d="M62,52.4223004 L55.504,56.134988 L56.496,57.8713095 L63.496,53.8705686 C63.808,53.6935358 64,53.3614743 64,53.0024079 L64,46.0011113 L62,46.0011113 L62,52.4223004 Z M53,31.5784405 L40,24.1490646 L27,31.5784405 L27,47.4553806 L40,55.8139285 L53,47.4553806 L53,31.5784405 Z M64,27.0005927 L64,33.9988887 L62,33.9988887 L62,28.5388776 L55,31.6484534 L55,48.0014818 C55,48.3415447 54.827,48.6586034 54.541,48.8426375 L41,57.5492499 L41,64.2994999 L46.514,61.232932 L47.486,62.9812558 L40.486,66.8739767 C40.335,66.9579922 40.167,67 40,67 C39.833,67 39.665,66.9579922 39.514,66.8739767 L32.514,62.9812558 L33.486,61.232932 L39,64.2994999 L39,57.5492499 L25.459,48.8426375 C25.173,48.6586034 25,48.3415447 25,48.0014818 L25,31.6484534 L18,28.5368772 L18,33.9988887 L16,33.9988887 L16,27.0005927 C16,26.6415262 16.192,26.3104649 16.504,26.1314317 L23.504,22.1286905 L24.496,23.865012 L19.213,26.8865716 L25.943,29.8781256 L39.504,22.1286905 C39.811,21.9526579 40.189,21.9526579 40.496,22.1286905 L54.057,29.8791258 L60.789,26.8875718 L55.504,23.865012 L56.496,22.1286905 L63.496,26.1314317 C63.808,26.3104649 64,26.6415262 64,27.0005927 L64,27.0005927 Z M40,35.1651046 L36,37.5655492 L36,42.4344508 L40,44.8348954 L44,42.4344508 L44,37.5655492 L40,35.1651046 Z M40.515,33.1417299 L45.044,35.8592332 L48.553,34.1049083 L49.447,35.8942397 L46,37.6175588 L46,43.0005557 C46,43.3516207 45.815,43.6776811 45.515,43.8577144 L41,46.5672162 L41,51.0020374 L39,51.0020374 L39,46.5672162 L34.485,43.8577144 C34.185,43.6776811 34,43.3516207 34,43.0005557 L34,37.6175588 L30.553,35.8942397 L31.447,34.1049083 L34.956,35.8592332 L39.485,33.1417299 C39.802,32.9506946 40.198,32.9506946 40.515,33.1417299 L40.515,33.1417299 Z M40,15.1443971 L46.514,18.7680682 L47.486,17.0197444 L40.486,13.1260233 C40.184,12.9579922 39.816,12.9579922 39.514,13.1260233 L32.514,17.0197444 L33.486,18.7680682 L40,15.1443971 Z M18,52.4192999 L24.496,56.134988 L23.504,57.8713095 L16.504,53.8675681 C16.192,53.6895351 16,53.3584738 16,52.9994073 L16,46.0011113 L18,46.0011113 L18,52.4192999 Z" id="AWS-Elemental-MediaConvert_Icon_64_Squid" fill="#FFFFFF"></path>
    </g>
</svg>

<svg xmlns="http://www.w3.org/2000/svg" width="80" height="80"><defs><linearGradient id="a" x1="0%" x2="100%" y1="100%" y2="0%"><stop offset="0%" stop-color="#C8511B"/><stop offset="100%" stop-color="#F90"/></linearGradient></defs><g fill="none" fill-rule="evenodd"><path fill="url(#a)" d="M0 0h80v80H0z"/><path fill="#FFF" d="m62 52.422-6.496 3.713.992 1.736 7-4a.998.998 0 0 0 .504-.869v-7h-2v6.42Zm-9-20.844L40 24.15l-13 7.43v15.876l13 8.359 13-8.359V31.578Zm11-4.577v6.998h-2v-5.46l-7 3.11V48a1 1 0 0 1-.459.842L41 57.549v6.75l5.514-3.066.972 1.748-7 3.893a1 1 0 0 1-.972 0l-7-3.893.972-1.748L39 64.299v-6.75l-13.541-8.706A1 1 0 0 1 25 48V31.648l-7-3.111v5.462h-2V27c0-.36.192-.69.504-.87l7-4.002.992 1.736-5.283 3.022 6.73 2.991 13.561-7.75a.998.998 0 0 1 .992 0l13.561 7.751 6.732-2.991-5.285-3.023.992-1.736 7 4.002c.312.18.504.51.504.87Zm-24 8.164-4 2.4v4.87l4 2.4 4-2.4v-4.87l-4-2.4Zm.515-2.023 4.529 2.717 3.509-1.754.894 1.79L46 37.617V43c0 .35-.185.677-.485.857L41 46.568v4.434h-2v-4.435l-4.515-2.71c-.3-.18-.485-.505-.485-.856v-5.383l-3.447-1.724.894-1.79 3.509 1.755 4.529-2.717a.997.997 0 0 1 1.03 0ZM40 15.144l6.514 3.624.972-1.748-7-3.894a1 1 0 0 0-.972 0l-7 3.894.972 1.748L40 15.144ZM18 52.42l6.496 3.716-.992 1.736-7-4.003a.999.999 0 0 1-.504-.869v-6.998h2v6.418Z"/></g></svg>
